icons/svg/tourist/historic_tank.svg

<?xml version="1.0" encoding="UTF-8" standalone="no"?>
<!-- Created with Inkscape (http://www.inkscape.org/) -->

<svg
   xmlns:dc="http://purl.org/dc/elements/1.1/"
   xmlns:cc="http://creativecommons.org/ns#"
   xmlns:rdf="http://www.w3.org/1999/02/22-rdf-syntax-ns#"
   xmlns:svg="http://www.w3.org/2000/svg"
   xmlns="http://www.w3.org/2000/svg"
   xmlns:sodipodi="http://sodipodi.sourceforge.net/DTD/sodipodi-0.dtd"
   xmlns:inkscape="http://www.inkscape.org/namespaces/inkscape"
   version="1.0"
   width="580"
   height="580"
   id="svg2"
   sodipodi:version="0.32"
   inkscape:version="0.92.3 (2405546, 2018-03-11)"
   sodipodi:docname="tank.svg"
   inkscape:output_extension="org.inkscape.output.svg.inkscape">
  <metadata
     id="metadata2975">
    <rdf:RDF>
      <cc:Work
         rdf:about="">
        <dc:format>image/svg+xml</dc:format>
        <dc:type
           rdf:resource="http://purl.org/dc/dcmitype/StillImage" />
        <cc:license
           rdf:resource="http://web.resource.org/cc/PublicDomain" />
        <dc:language>en</dc:language>
        <dc:title />
      </cc:Work>
    </rdf:RDF>
  </metadata>
  <sodipodi:namedview
     inkscape:window-height="1006"
     inkscape:window-width="1920"
     inkscape:pageshadow="2"
     inkscape:pageopacity="0.0"
     guidetolerance="10.0"
     gridtolerance="10.0"
     objecttolerance="10.0"
     borderopacity="1.0"
     bordercolor="#666666"
     pagecolor="#ffffff"
     id="base"
     inkscape:zoom="0.65172414"
     inkscape:cx="71.311386"
     inkscape:cy="308.84554"
     inkscape:window-x="1920"
     inkscape:window-y="0"
     inkscape:current-layer="svg2"
     showgrid="false"
     inkscape:window-maximized="1" />
  <defs
     id="defs4">
    <inkscape:perspective
       sodipodi:type="inkscape:persp3d"
       inkscape:vp_x="0 : 290 : 1"
       inkscape:vp_y="0 : 1000 : 0"
       inkscape:vp_z="580 : 290 : 1"
       inkscape:persp3d-origin="290 : 193.33333 : 1"
       id="perspective2441" />
    <inkscape:perspective
       id="perspective3452"
       inkscape:persp3d-origin="30 : 20 : 1"
       inkscape:vp_z="60 : 30 : 1"
       inkscape:vp_y="0 : 1000 : 0"
       inkscape:vp_x="0 : 30 : 1"
       sodipodi:type="inkscape:persp3d" />
    <symbol
       viewBox="244.5 110 489 219.9"
       id="symbol-university">
      <path
         id="path4460"
         d="M79,43l57,119c0,0,21-96,104-96s124,106,124,106l43-133l82-17L0,17L79,43z" />
      <path
         id="path4462"
         d="M94,176l-21,39"
         stroke-width="20"
         stroke="#000000"
         fill="none" />
      <path
         id="path4464"
         d="M300,19c0,10.5-22.6,19-50.5,19S199,29.5,199,19s22.6-19,50.5-19S300,8.5,300,19z" />
      <path
         id="path4466"
         d="M112,216l-16-38L64,88c0,0-9-8-4-35s16-24,16-24"
         stroke-width="20"
         stroke="#000000"
         ill="none" />
    </symbol>
    <inkscape:perspective
       id="perspective4471"
       inkscape:persp3d-origin="372.04724 : 350.78739 : 1"
       inkscape:vp_z="744.09448 : 526.18109 : 1"
       inkscape:vp_y="0 : 1000 : 0"
       inkscape:vp_x="0 : 526.18109 : 1"
       sodipodi:type="inkscape:persp3d" />
    <inkscape:perspective
       id="perspective4668"
       inkscape:persp3d-origin="6 : 4 : 1"
       inkscape:vp_z="12 : 6 : 1"
       inkscape:vp_y="0 : 1000 : 0"
       inkscape:vp_x="0 : 6 : 1"
       sodipodi:type="inkscape:persp3d" />
    <inkscape:perspective
       id="perspective4904"
       inkscape:persp3d-origin="16 : 10.666667 : 1"
       inkscape:vp_z="32 : 16 : 1"
       inkscape:vp_y="0 : 1000 : 0"
       inkscape:vp_x="0 : 16 : 1"
       sodipodi:type="inkscape:persp3d" />
    <marker
       style="overflow:visible;"
       id="Arrow2Lend"
       refX="0.0"
       refY="0.0"
       orient="auto"
       inkscape:stockid="Arrow2Lend">
      <path
         transform="scale(1.1) rotate(180) translate(1,0)"
         d="M 8.7185878,4.0337352 L -2.2072895,0.016013256 L 8.7185884,-4.0017078 C 6.9730900,-1.6296469 6.9831476,1.6157441 8.7185878,4.0337352 z "
         style="font-size:12.0;fill-rule:evenodd;stroke-width:0.62500000;stroke-linejoin:round;"
         id="path4137" />
    </marker>
    <marker
       style="overflow:visible;"
       id="Arrow1Mend"
       refX="0.0"
       refY="0.0"
       orient="auto"
       inkscape:stockid="Arrow1Mend">
      <path
         transform="scale(0.4) rotate(180) translate(10,0)"
         style="fill-rule:evenodd;stroke:#000000;stroke-width:1.0pt;marker-start:none;"
         d="M 0.0,0.0 L 5.0,-5.0 L -12.5,0.0 L 5.0,5.0 L 0.0,0.0 z "
         id="path4125" />
    </marker>
    <marker
       style="overflow:visible"
       id="TriangleOutL"
       refX="0.0"
       refY="0.0"
       orient="auto"
       inkscape:stockid="TriangleOutL">
      <path
         transform="scale(0.8)"
         style="fill-rule:evenodd;stroke:#000000;stroke-width:1.0pt;marker-start:none"
         d="M 5.77,0.0 L -2.88,5.0 L -2.88,-5.0 L 5.77,0.0 z "
         id="path4214" />
    </marker>
    <marker
       style="overflow:visible;"
       id="Arrow1Lend"
       refX="0.0"
       refY="0.0"
       orient="auto"
       inkscape:stockid="Arrow1Lend">
      <path
         transform="scale(0.8) rotate(180) translate(12.5,0)"
         style="fill-rule:evenodd;stroke:#000000;stroke-width:1.0pt;marker-start:none;"
         d="M 0.0,0.0 L 5.0,-5.0 L -12.5,0.0 L 5.0,5.0 L 0.0,0.0 z "
         id="path4119" />
    </marker>
    <marker
       style="overflow:visible"
       id="Tail"
       refX="0.0"
       refY="0.0"
       orient="auto"
       inkscape:stockid="Tail">
      <g
         transform="scale(-1.2)"
         id="g4152">
        <path
           style="fill:none;fill-rule:evenodd;stroke:#000000;stroke-width:0.8;marker-start:none;marker-end:none;stroke-linecap:round"
           d="M -3.8048674,-3.9585227 L 0.54352094,0"
           id="path4154" />
        <path
           style="fill:none;fill-rule:evenodd;stroke:#000000;stroke-width:0.8;marker-start:none;marker-end:none;stroke-linecap:round"
           d="M -1.2866832,-3.9585227 L 3.0617053,0"
           id="path4156" />
        <path
           style="fill:none;fill-rule:evenodd;stroke:#000000;stroke-width:0.8;marker-start:none;marker-end:none;stroke-linecap:round"
           d="M 1.3053582,-3.9585227 L 5.6537466,0"
           id="path4158" />
        <path
           style="fill:none;fill-rule:evenodd;stroke:#000000;stroke-width:0.8;marker-start:none;marker-end:none;stroke-linecap:round"
           d="M -3.8048674,4.1775838 L 0.54352094,0.21974226"
           id="path4160" />
        <path
           style="fill:none;fill-rule:evenodd;stroke:#000000;stroke-width:0.8;marker-start:none;marker-end:none;stroke-linecap:round"
           d="M -1.2866832,4.1775838 L 3.0617053,0.21974226"
           id="path4162" />
        <path
           style="fill:none;fill-rule:evenodd;stroke:#000000;stroke-width:0.8;marker-start:none;marker-end:none;stroke-linecap:round"
           d="M 1.3053582,4.1775838 L 5.6537466,0.21974226"
           id="path4164" />
      </g>
    </marker>
    <marker
       style="overflow:visible"
       id="Arrow1Sstart"
       refX="0.0"
       refY="0.0"
       orient="auto"
       inkscape:stockid="Arrow1Sstart">
      <path
         transform="scale(0.2) translate(6,0)"
         style="fill-rule:evenodd;stroke:#000000;stroke-width:1.0pt;marker-start:none"
         d="M 0.0,0.0 L 5.0,-5.0 L -12.5,0.0 L 5.0,5.0 L 0.0,0.0 z "
         id="path4128" />
    </marker>
    <marker
       style="overflow:visible;"
       id="Arrow1Send"
       refX="0.0"
       refY="0.0"
       orient="auto"
       inkscape:stockid="Arrow1Send">
      <path
         transform="scale(0.2) rotate(180) translate(6,0)"
         style="fill-rule:evenodd;stroke:#000000;stroke-width:1.0pt;marker-start:none;"
         d="M 0.0,0.0 L 5.0,-5.0 L -12.5,0.0 L 5.0,5.0 L 0.0,0.0 z "
         id="path4131" />
    </marker>
    <marker
       style="overflow:visible"
       id="SemiCircleOut"
       refX="0.0"
       refY="0.0"
       orient="auto"
       inkscape:stockid="SemiCircleOut">
      <path
         transform="scale(0.6) translate(7.125493,0.763446)"
         style="fill-rule:evenodd;stroke:#000000;stroke-width:1.0pt;marker-start:none;marker-end:none"
         d="M -2.5,-0.80913858 C -2.5,1.9508614 -4.7400000,4.1908614 -7.5,4.1908614 L -7.5,-5.8091386 C -4.7400000,-5.8091386 -2.5,-3.5691386 -2.5,-0.80913858 z "
         id="path4235" />
    </marker>
    <marker
       style="overflow:visible;"
       id="Arrow2Send"
       refX="0.0"
       refY="0.0"
       orient="auto"
       inkscape:stockid="Arrow2Send">
      <path
         transform="scale(0.3) rotate(180) translate(-2.3,0)"
         d="M 8.7185878,4.0337352 L -2.2072895,0.016013256 L 8.7185884,-4.0017078 C 6.9730900,-1.6296469 6.9831476,1.6157441 8.7185878,4.0337352 z "
         style="font-size:12.0;fill-rule:evenodd;stroke-width:0.62500000;stroke-linejoin:round;"
         id="path4149" />
    </marker>
    <marker
       style="overflow:visible"
       id="TriangleOutS"
       refX="0.0"
       refY="0.0"
       orient="auto"
       inkscape:stockid="TriangleOutS">
      <path
         transform="scale(0.2)"
         style="fill-rule:evenodd;stroke:#000000;stroke-width:1.0pt;marker-start:none"
         d="M 5.77,0.0 L -2.88,5.0 L -2.88,-5.0 L 5.77,0.0 z "
         id="path4220" />
    </marker>
    <marker
       style="overflow:visible"
       id="CurveIn"
       refX="0.0"
       refY="0.0"
       orient="auto"
       inkscape:stockid="CurveIn">
      <path
         transform="scale(0.6)"
         style="fill-rule:evenodd;stroke:#000000;stroke-width:1.0pt;marker-start:none;marker-end:none;fill:none"
         d="M 4.6254930,-5.0456926 C 1.8654930,-5.0456926 -0.37450702,-2.8056926 -0.37450702,-0.045692580 C -0.37450702,2.7143074 1.8654930,4.9543074 4.6254930,4.9543074"
         id="path4238" />
    </marker>
    <marker
       orient="auto"
       refY="0"
       refX="0"
       id="InfiniteLineStart"
       inkscape:stockid="InfiniteLineStart"
       style="overflow:visible">
      <g
         transform="translate(-13,0)"
         id="g4298">
        <circle
           cx="3"
           cy="0"
           r="0.8"
           id="circle4300" />
        <circle
           cx="6.5"
           cy="0"
           r="0.8"
           id="circle4302" />
        <circle
           cx="10"
           cy="0"
           r="0.8"
           id="circle4304" />
      </g>
    </marker>
    <marker
       style="overflow:visible"
       id="StopS"
       refX="0.0"
       refY="0.0"
       orient="auto"
       inkscape:stockid="StopS">
      <path
         transform="scale(0.2)"
         style="fill:none;fill-opacity:0.75000000;fill-rule:evenodd;stroke:#000000;stroke-width:1.0pt"
         d="M 0.0,5.65 L 0.0,-5.65"
         id="path4229" />
    </marker>
    <marker
       style="overflow:visible"
       id="Arrow2Sstart"
       refX="0.0"
       refY="0.0"
       orient="auto"
       inkscape:stockid="Arrow2Sstart">
      <path
         transform="scale(0.3) translate(-2.3,0)"
         d="M 8.7185878,4.0337352 L -2.2072895,0.016013256 L 8.7185884,-4.0017078 C 6.9730900,-1.6296469 6.9831476,1.6157441 8.7185878,4.0337352 z "
         style="font-size:12.0;fill-rule:evenodd;stroke-width:0.62500000;stroke-linejoin:round"
         id="path4146" />
    </marker>
    <marker
       style="overflow:visible"
       id="DiamondS"
       refX="0.0"
       refY="0.0"
       orient="auto"
       inkscape:stockid="DiamondS">
      <path
         transform="scale(0.2)"
         style="fill-rule:evenodd;stroke:#000000;stroke-width:1.0pt;marker-start:none"
         d="M 0,-7.0710768 L -7.0710894,0 L 0,7.0710589 L 7.0710462,0 L 0,-7.0710768 z "
         id="path4202" />
    </marker>
    <marker
       orient="auto"
       refY="0"
       refX="0"
       id="RazorWire"
       inkscape:stockid="RazorWire">
       style=&quot;overflow:visible&quot;&gt;
      <path
   d="M 0.022727273,-0.74009011 L 0.022727273,0.69740989 L -7.7585227,3.0099099 L 10.678977,3.0099099 L 3.4914773,0.69740989 L 3.4914773,-0.74009011 L 10.741477,-2.8963401 L -7.7272727,-2.8963401 L 0.022727273,-0.74009011 z "
   style="fill:#808080;fill-opacity:1;fill-rule:evenodd;stroke:#000000;stroke-width:0.1pt"
   transform="scale(0.8,0.8)"
   id="path4286" />
</marker>
    <inkscape:perspective
       id="perspective5233"
       inkscape:persp3d-origin="16 : 10.666667 : 1"
       inkscape:vp_z="32 : 16 : 1"
       inkscape:vp_y="0 : 1000 : 0"
       inkscape:vp_x="0 : 16 : 1"
       sodipodi:type="inkscape:persp3d" />
    <inkscape:perspective
       id="perspective5412"
       inkscape:persp3d-origin="250 : 166.66667 : 1"
       inkscape:vp_z="500 : 250 : 1"
       inkscape:vp_y="0 : 1000 : 0"
       inkscape:vp_x="0 : 250 : 1"
       sodipodi:type="inkscape:persp3d" />
    <inkscape:perspective
       id="perspective5571"
       inkscape:persp3d-origin="202.85715 : 136.19048 : 1"
       inkscape:vp_z="405.71429 : 204.28572 : 1"
       inkscape:vp_y="0 : 1000 : 0"
       inkscape:vp_x="0 : 204.28572 : 1"
       sodipodi:type="inkscape:persp3d" />
    <inkscape:perspective
       id="perspective6552"
       inkscape:persp3d-origin="64 : 42.666667 : 1"
       inkscape:vp_z="128 : 64 : 1"
       inkscape:vp_y="0 : 1000 : 0"
       inkscape:vp_x="0 : 64 : 1"
       sodipodi:type="inkscape:persp3d" />
    <inkscape:perspective
       id="perspective8761"
       inkscape:persp3d-origin="238.5 : 114.33333 : 1"
       inkscape:vp_z="477 : 171.5 : 1"
       inkscape:vp_y="0 : 1000 : 0"
       inkscape:vp_x="0 : 171.5 : 1"
       sodipodi:type="inkscape:persp3d" />
    <inkscape:perspective
       id="perspective10479"
       inkscape:persp3d-origin="52.830002 : 33.539668 : 1"
       inkscape:vp_z="105.66 : 50.309502 : 1"
       inkscape:vp_y="0 : 1000 : 0"
       inkscape:vp_x="0 : 50.309502 : 1"
       sodipodi:type="inkscape:persp3d" />
    <marker
       viewBox="0 0 10 10"
       refY="5"
       refX="10"
       orient="auto"
       markerWidth="4"
       markerUnits="strokeWidth"
       markerHeight="3"
       id="ArrowStart">
      <path
         id="path1968"
         d="M 10 0 L 0 5 L 10 10 z" />
    </marker>
    <marker
       viewBox="0 0 10 10"
       refY="5"
       refX="0"
       orient="auto"
       markerWidth="4"
       markerUnits="strokeWidth"
       markerHeight="3"
       id="ArrowEnd">
      <path
         id="path1965"
         d="M 0 0 L 10 5 L 0 10 z" />
    </marker>
    <inkscape:perspective
       id="perspective10853"
       inkscape:persp3d-origin="223.9745 : 153.55566 : 1"
       inkscape:vp_z="447.94901 : 230.3335 : 1"
       inkscape:vp_y="0 : 1000 : 0"
       inkscape:vp_x="0 : 230.3335 : 1"
       sodipodi:type="inkscape:persp3d" />
    <inkscape:perspective
       id="perspective4473"
       inkscape:persp3d-origin="0.5 : 0.33333333 : 1"
       inkscape:vp_z="1 : 0.5 : 1"
       inkscape:vp_y="0 : 1000 : 0"
       inkscape:vp_x="0 : 0.5 : 1"
       sodipodi:type="inkscape:persp3d" />
  </defs>
  <g
     id="g1327">
    <path
       d="M 66.275,1.768 C 24.94,1.768 1.704,23.139 1.704,66.804 L 1.704,516.927 C 1.704,557.771 22.599,579.156 63.896,579.156 L 515.92,579.156 C 557.227,579.156 578.149,558.841 578.149,516.927 L 578.149,66.804 C 578.149,24.203 557.227,1.768 514.628,1.768 C 514.624,1.768 66.133,1.625 66.275,1.768 z "
       style="fill:#111;stroke:#eee;stroke-width:3.40799999"
       id="path1329" />
  </g>
  <path
     style="color:#000000;font-style:normal;font-variant:normal;font-weight:normal;font-stretch:normal;font-size:medium;line-height:normal;font-family:sans-serif;font-variant-ligatures:normal;font-variant-position:normal;font-variant-caps:normal;font-variant-numeric:normal;font-variant-alternates:normal;font-feature-settings:normal;text-indent:0;text-align:start;text-decoration:none;text-decoration-line:none;text-decoration-style:solid;text-decoration-color:#000000;letter-spacing:normal;word-spacing:normal;text-transform:none;writing-mode:lr-tb;direction:ltr;text-orientation:mixed;dominant-baseline:auto;baseline-shift:baseline;text-anchor:start;white-space:normal;shape-padding:0;clip-rule:nonzero;display:inline;overflow:visible;visibility:visible;opacity:1;isolation:auto;mix-blend-mode:normal;color-interpolation:sRGB;color-interpolation-filters:linearRGB;solid-color:#000000;solid-opacity:1;vector-effect:none;fill:#ffffff;fill-opacity:1;fill-rule:evenodd;stroke:none;stroke-width:25;stroke-linecap:round;stroke-linejoin:round;stroke-miterlimit:4;stroke-dasharray:none;stroke-dashoffset:0;stroke-opacity:1;color-rendering:auto;image-rendering:auto;shape-rendering:auto;text-rendering:auto;enable-background:accumulate"
     d="m 100.90245,304.39343 c -0.10548,0 -0.21095,9.1e-4 -0.3164,0.004 -9.966875,0.25302 -19.786005,3.21783 -26.957155,10.1621 -7.17114,6.9443 -10.71612,16.84066 -11.5039,27.74219 -0.0389,0.53889 -0.0428,1.07974 -0.0117,1.61914 2.29703,39.99331 32.34421,71.44239 79.386835,82.25977 0.91924,0.21152 1.85947,0.31832 2.80273,0.31836 h 288.6035 c 0.5888,-1.7e-4 1.17685,-0.0419 1.75977,-0.125 40.237,-8.30142 76.57002,-43.59875 79.07995,-80.11914 0.0273,-0.55996 0.0168,-1.12113 -0.0312,-1.67969 -0.66577,-7.75356 -1.26929,-17.26388 -7.77539,-26.07813 -6.5061,-8.81418 -18.30772,-13.71454 -33.10535,-14.0996 -0.1087,-0.003 -0.21743,-0.004 -0.32617,-0.004 z m 356.47033,21.40392 c 15.28006,-5.6e-4 27.66733,12.38595 27.66785,27.66601 5.6e-4,15.28083 -12.38702,27.66853 -27.66785,27.66797 -15.28007,-5.2e-4 -27.66658,-12.3879 -27.66602,-27.66797 5.2e-4,-15.2793 12.38672,-27.66549 27.66602,-27.66601 z m -257.09533,1.79139 c 20.45849,-5.4e-4 37.04351,16.58448 37.04297,37.04297 -5.4e-4,20.45773 -16.58524,37.04156 -37.04297,37.04102 -20.45696,-5.4e-4 -37.04047,-16.58406 -37.04101,-37.04102 -5.4e-4,-20.45773 16.58328,-37.04243 37.04101,-37.04297 z m 90.04883,0 c 20.45773,5.4e-4 37.04156,16.58524 37.04102,37.04297 -5.4e-4,20.45697 -16.58405,37.04048 -37.04102,37.04102 -20.45773,5.4e-4 -37.04243,-16.58329 -37.04297,-37.04102 -5.4e-4,-20.45849 16.58448,-37.04351 37.04297,-37.04297 z m 88.92383,0 c 20.45773,5.4e-4 37.04156,16.58524 37.04102,37.04297 -5.4e-4,20.45697 -16.58405,37.04048 -37.04102,37.04102 -20.45773,5.4e-4 -37.04243,-16.58329 -37.04297,-37.04102 -5.4e-4,-20.45849 16.58448,-37.04351 37.04297,-37.04297 z m -258.81836,0.69531 c 15.28083,-5.6e-4 27.66853,12.38714 27.66797,27.66797 -5.2e-4,15.28007 -12.3879,27.66658 -27.66797,27.66602 -15.2793,-5.2e-4 -27.665615,-12.38672 -27.666135,-27.66602 -5.6e-4,-15.28007 12.386065,-27.66745 27.666135,-27.66797 z"
     id="path1148"
     inkscape:connector-curvature="0"
     sodipodi:nodetypes="sccccccccccccsscccccsssssssssssssssccccc" />
  <line
     class="st0"
     x1="1237.2026"
     y1="-5.9086437"
     x2="521.80951"
     y2="-5.9086437"
     id="line11" />
  <path
     style="fill:#ffffff;fill-opacity:1;fill-rule:evenodd;stroke:none;stroke-width:1px;stroke-linecap:butt;stroke-linejoin:miter;stroke-opacity:1"
     d="M 130.42329,278.23269 H 376.69314 L 330.42237,198.08937 H 150.34217 Z"
     id="path1265"
     inkscape:connector-curvature="0" />
  <path
     style="color:#000000;font-style:normal;font-variant:normal;font-weight:normal;font-stretch:normal;font-size:medium;line-height:normal;font-family:sans-serif;font-variant-ligatures:normal;font-variant-position:normal;font-variant-caps:normal;font-variant-numeric:normal;font-variant-alternates:normal;font-feature-settings:normal;text-indent:0;text-align:start;text-decoration:none;text-decoration-line:none;text-decoration-style:solid;text-decoration-color:#000000;letter-spacing:normal;word-spacing:normal;text-transform:none;writing-mode:lr-tb;direction:ltr;text-orientation:mixed;dominant-baseline:auto;baseline-shift:baseline;text-anchor:start;white-space:normal;shape-padding:0;clip-rule:nonzero;display:inline;overflow:visible;visibility:visible;opacity:1;isolation:auto;mix-blend-mode:normal;color-interpolation:sRGB;color-interpolation-filters:linearRGB;solid-color:#000000;solid-opacity:1;vector-effect:none;fill:#ffffff;fill-opacity:1;fill-rule:evenodd;stroke:none;stroke-width:25;stroke-linecap:square;stroke-linejoin:miter;stroke-miterlimit:4;stroke-dasharray:none;stroke-dashoffset:0;stroke-opacity:1;color-rendering:auto;image-rendering:auto;shape-rendering:auto;text-rendering:auto;enable-background:accumulate"
     d="m 540.06055,194.7832 -12.3711,1.78125 -143.21875,20.61524 -12.37109,1.78125 12.51162,23.65916 c 49.09502,-6.71895 97.58764,-14.24959 146.63877,-21.30955 l 12.37305,-1.78125 z"
     id="path1267"
     inkscape:connector-curvature="0"
     sodipodi:nodetypes="cccccccc" />
</svg>

<svg width="580" height="580" viewBox="0 0 580 580" fill="none" xmlns="http://www.w3.org/2000/svg">
<g clip-path="url(#clip0)">
<path d="M66.2751 1.76815C24.9401 1.76815 1.7041 23.1391 1.7041 66.8041V516.927C1.7041 557.771 22.5991 579.156 63.8961 579.156H515.92C557.227 579.156 578.149 558.841 578.149 516.927V66.8041C578.149 24.2031 557.227 1.76815 514.628 1.76815C514.624 1.76815 66.1331 1.62515 66.2751 1.76815Z" fill="#111111" stroke="#EEEEEE" stroke-width="3.408"/>
<path fill-rule="evenodd" clip-rule="evenodd" d="M100.903 304.394C100.797 304.394 100.692 304.394 100.586 304.398C90.6194 304.651 80.8003 307.615 73.6291 314.56C66.458 321.504 62.913 331.4 62.1252 342.302C62.0863 342.841 62.0824 343.382 62.1135 343.921C64.4105 383.914 94.4577 415.363 141.5 426.181C142.42 426.392 143.36 426.499 144.303 426.499H432.907C433.495 426.499 434.083 426.457 434.666 426.374C474.903 418.073 511.236 382.775 513.746 346.255C513.774 345.695 513.763 345.134 513.715 344.575C513.049 336.822 512.446 327.311 505.94 318.497C499.434 309.683 487.632 304.783 472.834 304.398C472.726 304.395 472.617 304.394 472.508 304.394H100.903ZM457.373 325.797C472.653 325.797 485.04 338.183 485.041 353.463C485.041 368.744 472.654 381.132 457.373 381.131C442.093 381.131 429.706 368.744 429.707 353.463C429.707 338.184 442.094 325.798 457.373 325.797ZM200.278 327.589C220.736 327.588 237.321 344.173 237.321 364.632C237.32 385.09 220.735 401.673 200.278 401.673C179.821 401.672 163.237 385.089 163.237 364.632C163.236 344.174 179.82 327.589 200.278 327.589ZM290.326 327.589C310.784 327.589 327.368 344.174 327.368 364.632C327.367 385.089 310.783 401.672 290.326 401.673C269.869 401.673 253.284 385.09 253.284 364.632C253.283 344.173 269.868 327.588 290.326 327.589ZM379.25 327.589C399.708 327.589 416.292 344.174 416.291 364.632C416.291 385.089 399.707 401.672 379.25 401.673C358.793 401.673 342.208 385.09 342.207 364.632C342.207 344.173 358.792 327.588 379.25 327.589V327.589ZM120.432 328.284C135.713 328.284 148.1 340.671 148.1 355.952C148.099 371.232 135.712 383.619 120.432 383.618C105.153 383.618 92.7663 371.231 92.7658 355.952C92.7653 340.672 105.152 328.285 120.432 328.284Z" fill="white"/>
<path fill-rule="evenodd" clip-rule="evenodd" d="M130.423 278.233H376.693L330.422 198.089H150.342L130.423 278.233Z" fill="white"/>
<path fill-rule="evenodd" clip-rule="evenodd" d="M540.061 194.783L527.689 196.564L384.471 217.18L372.1 218.961L384.611 242.62C433.706 235.901 482.199 228.371 531.25 221.311L543.623 219.529L540.061 194.783Z" fill="white"/>
</g>
<defs>
<clipPath id="clip0">
<path d="M0 0H580V580H0V0Z" fill="white"/>
</clipPath>
</defs>
</svg>
